X: 62
T: Fiddler's heaven
C: anon.
O: Ireland
B: Francis O'Neill: "The Dance Music of Ireland" (1907) no. 62
R: Double jig
Z: Transcribed by Frank Nordberg - http://www.musicaviva.com
F: http://www.musicaviva.com/abc/tunes/ireland/oneill-1001/oneill-1001-006
2.abc
M: 6/8
L: 1/8
K: Amix
B/c/|dAF FEF|ded dfe|dAF FEF|AFE EFA|dAF FEF|ded def|ecA BAF|EAA A2:|
|:c/d/|ecA AcA|ecA A2c/d/|ecA BAF|AFE E2c/d/|ecA AcA|ecA d2B|cAF EFA|BAA
A2:|
W:
W:
W: From Musica Viva - http://www.musicaviva.com
W: the Internet center for free sheet music downloads.


